X: 1062
T: HARVARD QUICK-STEP
C: J. B. Smith
B: Oliver Ditson "The Boston Collection of Instrumental Music" 1910 p.106 #2
F: http://conquest.imslp.info/files/imglnks/usimg/8/8f/IMSLP175643-PMLP309456-bostoncollection00bost_bw.pdf
%: 2012 John Chambers <jc:trillian.mit.edu>
M: 2/4
L: 1/16
K: D
|:\
f4 d4 | c4 z2AA | A2A2B2A2 | f2d2 z4 |\
f4 d4 | g4 ^g4 | a2f2 g2e2 | e2d2 z4 :|
E2CD EA^GB | AEAc e4 | ^GEGB edcB | cABc def^g |\
aece A4 | afdf B4 | ^gfed cBA^G | A2AB AGFE |
f4 d4 | c4 z2AA | A2A2B2A2 | f2d2 z4 |\
f4 d4 | g4 ^g4 | a2f2 g2e2 | e2d2 z4 H|]
[K:G]\
BAB2 dcd2 | bagf edcB | cBc2 AGA2 | agfe dcBA |\
Bcde =f2ed | dc=fe agfe | fef2 ede2 | edcA "^da Capo"G4 |]

%%sep 1 1 500
%%sep 1 1 500
